X:4
T:The Major's Jig
F:http://www.hiico.com/.abc/majors_jig.abc
O:Scotland
K:D
M:6/8
L:1/8
Z:Lee Wenzbauer lee@hiico.com 24 August, 2004
A |: "D" d3 ABc | dAG FED | d3 Bcd | "A" efd cBA | "D" d3 Adc | BAG FED | "G" GFG "A" EAG | "D" FDD DzA :|
|: "D" FED AFD | "G" GBd dBG | "D" FED AGF |[1 "A" E3 A2G | "D" FED AFD
| "G" GBd dBG | "A7" Ace gfe | "D"  fdd dzA :|[2 "E" {EFEFEF}E3 "A7" A2G | "D" FED "Em" GFE | "D" AGF "G" BAG | "A7" Aag fge | "D" fdd dz2
